color/ella.svg

<!-- Generated by IcoMoon.io -->
<svg version="1.1" xmlns="http://www.w3.org/2000/svg" width="32" height="32" viewBox="0 0 32 32">
<title>ella</title>
<path fill="#396a28" d="M32 16c0 8.837-7.163 16-16 16s-16-7.163-16-16c0-8.837 7.163-16 16-16s16 7.163 16 16z"></path>
<path fill="#fff" d="M18.073 13.212l-2.073-2.072-2.087 2.086-2.164-2.164 4.251-6.062 4.28 6.005zM13.19 13.95l-2.050 2.050 2.072 2.073-2.156 2.156-6.056-4.229 5.99-4.25zM18.774 18.087l2.086-2.087-2.064-2.064 2.226-2.226 5.978 4.29-6.044 4.269zM13.936 18.797l2.064 2.063 2.050-2.050 2.182 2.183-4.232 6.007-4.204-6.064zM16 12.527l3.472 3.473-3.472 3.472-3.472-3.472z"></path>
</svg>

<svg height="32" width="32" xmlns="http://www.w3.org/2000/svg"><g fill="none" fill-rule="evenodd"><circle cx="16" cy="16" fill="#396a28" r="16"/><path d="M18.073 13.212L16 11.14l-2.087 2.086-2.164-2.164L16 5l4.28 6.005zm-4.883.738L11.14 16l2.072 2.073-2.156 2.156L5 16l5.99-4.25zm5.584 4.137L20.86 16l-2.064-2.064 2.226-2.226L27 16l-6.044 4.269zm-4.838.71L16 20.86l2.05-2.05 2.182 2.183L16 27l-4.204-6.064zM16 12.527L19.472 16 16 19.472 12.528 16z" fill="#fff"/></g></svg>
